packages/tokens/icons/truck/size16Px.svg

<svg viewBox="0 0 16 16" fill="none" xmlns="http://www.w3.org/2000/svg" width="1em" height="1em"><path d="M5.5 11.5C5.5 12.0523 5.05228 12.5 4.5 12.5C3.94772 12.5 3.5 12.0523 3.5 11.5C3.5 10.9477 3.94772 10.5 4.5 10.5C5.05228 10.5 5.5 10.9477 5.5 11.5ZM13.5 11.5C13.5 12.0523 13.0523 12.5 12.5 12.5C11.9477 12.5 11.5 12.0523 11.5 11.5C11.5 10.9477 11.9477 10.5 12.5 10.5C13.0523 10.5 13.5 10.9477 13.5 11.5Z" stroke="currentColor" stroke-linecap="round"/><path d="M14 8.5L12.5 8.5" stroke="currentColor" stroke-linecap="round"/><path d="M10 6.5H12.5C12.8148 6.5 13.1111 6.64819 13.3 6.9L14.3 8.23333C14.4298 8.40642 14.5 8.61696 14.5 8.83333V11.5526H13.5" stroke="currentColor" stroke-linejoin="round"/><path d="M10.4999 8.5L1.97363 8.5" stroke="currentColor" stroke-linecap="round"/><path d="M3.5 11.5H2.5C1.94772 11.5 1.5 11.0523 1.5 10.5L1.5 5.5C1.5 4.94772 1.94772 4.5 2.5 4.5L9.5 4.5C10.0523 4.5 10.5 4.94772 10.5 5.5L10.5 10.5C10.5 11.0523 10.0523 11.5 9.5 11.5L5.5 11.5" stroke="currentColor"/><path d="M9 11.5H11.5" stroke="currentColor" stroke-linecap="round"/></svg>

<svg xmlns="http://www.w3.org/2000/svg" fill="none" viewBox="0 0 16 16" width="1em" height="1em"><path stroke="currentColor" stroke-linecap="round" d="M5.5 11.5a1 1 0 1 1-2 0 1 1 0 0 1 2 0Zm8 0a1 1 0 1 1-2 0 1 1 0 0 1 2 0Zm.5-3h-1.5"/><path stroke="currentColor" stroke-linejoin="round" d="M10 6.5h2.5a1 1 0 0 1 .8.4l1 1.333a1 1 0 0 1 .2.6v2.72h-1"/><path stroke="currentColor" stroke-linecap="round" d="M10.5 8.5H1.974"/><path stroke="currentColor" d="M3.5 11.5h-1a1 1 0 0 1-1-1v-5a1 1 0 0 1 1-1h7a1 1 0 0 1 1 1v5a1 1 0 0 1-1 1h-4"/><path stroke="currentColor" stroke-linecap="round" d="M9 11.5h2.5"/></svg>
